icons/drag-drop-line.svg

<svg xmlns="http://www.w3.org/2000/svg" width="24" height="24" fill="none"><g clip-path="url(#a)"><g><path fill="#121212" d="M16 13L22.964 17.062L19.991 17.912L22.116 21.593L20.384 22.593L18.259 18.913L16.036 21.063L16 13ZM14 6H16V8H21C21.2652 8 21.5196 8.10536 21.7071 8.29289C21.8946 8.48043 22 8.73478 22 9V13H20V10H10V20H14V22H9C8.73478 22 8.48043 21.8946 8.29289 21.7071C8.10536 21.5196 8 21.2652 8 21V16H6V14H8V9C8 8.73478 8.10536 8.48043 8.29289 8.29289C8.48043 8.10536 8.73478 8 9 8H14V6ZM4 14V16H2V14H4ZM4 10V12H2V10H4ZM4 6V8H2V6H4ZM4 2V4H2V2H4ZM8 2V4H6V2H8ZM12 2V4H10V2H12ZM16 2V4H14V2H16Z"/></g></g><defs><clipPath id="a"><rect width="24" height="24" fill="white"/></clipPath></defs></svg>

<svg width="24" height="24" fill="none" xmlns="http://www.w3.org/2000/svg"><g clip-path="url(#a)"><path d="m16 13 6.964 4.062-2.973.85 2.125 3.681-1.732 1-2.125-3.68-2.223 2.15L16 13Zm-2-7h2v2h5a1 1 0 0 1 1 1v4h-2v-3H10v10h4v2H9a1 1 0 0 1-1-1v-5H6v-2h2V9a1 1 0 0 1 1-1h5V6ZM4 14v2H2v-2h2Zm0-4v2H2v-2h2Zm0-4v2H2V6h2Zm0-4v2H2V2h2Zm4 0v2H6V2h2Zm4 0v2h-2V2h2Zm4 0v2h-2V2h2Z" /></g><defs><clipPath id="a"><path fill="#fff" d="M0 0h24v24H0z"/></clipPath></defs></svg>
